X: 119006
Q: "Highland Schottische."
M: C
L: 1/8
K: G
vG2uG>uG (B<d)d2 | vc>vAuB>uG A>G (F<D) |\
vg>vab>g a>g (f<d) | e>fg>e d<B B<G |
g>ab>g a>g (f<d) | e<g f<a g2g2 |\
g>ab>g a>gf>d | e>fg>e d<B B>uA |\


